X: 0751
T: MISS SITWELL'S STRATHSPEY
B: Oliver Ditson "The Boston Collection of Instrumental Music" 1910 p.75 #1
F: http://conquest.imslp.info/files/imglnks/usimg/8/8f/IMSLP175643-PMLP309456-bostoncollection00bost_bw.pdf
%: 2012 John Chambers <jc:trillian.mit.edu>
M: 4/4
L: 1/16
K: D
FE |\
D2A2F2A2 B2E2E2 FE | D2A2F2d2 A2f2d2a2 | f3e defd e2E2E2 FE | D2A2F2d2 TA4 AGFE |
D2A2F2A2 B2E2E2 FE | D2A2F2d2 A2f2d2a2 | f3e defd e2E2E2 FE | A2d2F2A2  {A}d4 d2 |]
fg |\
a2d'2Tf3a b2e2e2 fg | a2d'2Tf3g a2b2f3d' | af3d'3a b2e2e2 fg | a3d'f3g Ta4 a2fg |
A2d'2Tf3a b2e2e2 fg | a3b/c'/ d'2c'2 Tb2a2Tg2f2 | {f}e3d {de}f3d e2E2E2 FG | A3d {B}A2GF {F}A4 A2d2 |]

%%sep 1 1 500
%%sep 1 1 500
